X: 35703
T: Saint Anne's
R: reel
M: 4/4
K: Dmajor
vdue|:vfuevdufveudvBd|uA2vFuAvDuAvFA|uB2vGuBvEuBvGB|
uA2vFuAvDuAvFA|ufveudvfuevduBvd|uA2vFuAvDuAvFA|
uBvGuevducvAuBvc|uevdudvcud2vdue:|:vf2ufvgufveudvc|uBvgugvfug2vfue|
veudvcuBvAuBvcud|vbuavau^gvaubvau=g|vf2ufvgufveudvc|
uBvgugvfug2vfue|veudvcuBvAuBvcud|veudvdcud2vdue:|

